X:659
T:Scotch Cap
S:Colin Hume's website,  colinhume.com  - chords can also be printed below the stave.
Q:3/8=120
M:6/8
L:1/8
K:DDor
P:A
|:z | "Dm"D2D d2d | "Am"e2d c2A | "G"B2d B2A | B3 d2 :|
P:B
|: d/e/ | "Dm"f2A A2 d/e/ | "Aaug/C#"f2A A2 d/e/ | "F/C"f2A A2F | "Dm/B"A3 d3 |\
"Dm/A"B2B A2F | "G"G2G d2d | "Dm/F"B2B AF2 | "C"E3 "Dm"D2 :|

